X: 36131
T: Scordatura
R: jig
M: 6/8
K: Amajor
UG|:(AB)A (cA)A|(dA)A (cA)A|(AB)A (cA)A|(dA)A (cA)A|
efe ecB|AGF (E2 G)|V(AB)A (cA)A|(dA)A (cA)A|
(AB)A (cA)A|(dA)A (cA)A|efe agf|ecB (A2 G):|
|:VA2 F D2 F|G2 D B,2 D|A2 F D2 E|F3 G3|
AFF DFF|GEE CEE|AFF DFF|G3 c3:|
|:(AB)A (cA)A|(dA)A (cA)A|(AB)A (cA)A|(dA)A (cA)A|
efe ecB|AGF (E2 G)|V(AB)A (cA)A|(dA)A (cA)A|
(AB)A (cA)A|(dA)A (cA)A|efe agf|1 ecB (A2 G):|2 ecB A2||

